src/catppuccin-mocha-green-cursors/wait-05_24.svg

<?xml version="1.0" encoding="UTF-8" standalone="no"?>
<svg
   id="svg5327"
   width="24"
   height="24"
   version="1.1"
   sodipodi:docname="wait-05_24.svg"
   inkscape:version="1.1.2 (0a00cf5339, 2022-02-04)"
   xmlns:inkscape="http://www.inkscape.org/namespaces/inkscape"
   xmlns:sodipodi="http://sodipodi.sourceforge.net/DTD/sodipodi-0.dtd"
   xmlns:xlink="http://www.w3.org/1999/xlink"
   xmlns="http://www.w3.org/2000/svg"
   xmlns:svg="http://www.w3.org/2000/svg">
  <sodipodi:namedview
     id="namedview22"
     pagecolor="#ffffff"
     bordercolor="#666666"
     borderopacity="1.0"
     inkscape:pageshadow="2"
     inkscape:pageopacity="0.0"
     inkscape:pagecheckerboard="0"
     showgrid="false"
     inkscape:snap-bbox="true"
     inkscape:snap-bbox-midpoints="true"
     inkscape:zoom="26.24"
     inkscape:cx="1.410061"
     inkscape:cy="10.89939"
     inkscape:window-width="1896"
     inkscape:window-height="1020"
     inkscape:window-x="9"
     inkscape:window-y="45"
     inkscape:window-maximized="1"
     inkscape:current-layer="svg5327" />
  <defs
     id="defs5329">
    <filter
       id="filter837"
       style="color-interpolation-filters:sRGB"
       width="1.12"
       height="1.12"
       x="-0.059999999"
       y="-0.059999999">
      <feGaussianBlur
         id="feGaussianBlur839"
         stdDeviation=".55" />
    </filter>
    <linearGradient
       id="linearGradient832"
       x1="21"
       x2="25"
       y1="16"
       y2="28"
       gradientTransform="matrix(1.1888112,0,0,1.1888112,-14.248251,-15.248253)"
       gradientUnits="userSpaceOnUse"
       xlink:href="#linearGradient830" />
    <linearGradient
       id="linearGradient830">
      <stop
         id="stop826"
         style="stop-color:#ffffff;stop-opacity:1"
         offset="0" />
      <stop
         id="stop828"
         style="stop-color:#ffffff;stop-opacity:0"
         offset="1" />
    </linearGradient>
    <filter
       id="filter862"
       style="color-interpolation-filters:sRGB"
       width="1.12"
       height="1.12"
       x="-0.059999999"
       y="-0.059999999">
      <feGaussianBlur
         id="feGaussianBlur864"
         stdDeviation=".4" />
    </filter>
    <filter
       id="filter835"
       style="color-interpolation-filters:sRGB"
       width="1.1439988"
       height="1.1439984"
       x="-0.071999421"
       y="-0.071999216">
      <feGaussianBlur
         id="feGaussianBlur837"
         stdDeviation=".48" />
    </filter>
    <filter
       id="filter839"
       style="color-interpolation-filters:sRGB"
       width="1.1440001"
       height="1.1440001"
       x="-0.072000004"
       y="-0.072000004">
      <feGaussianBlur
         id="feGaussianBlur841"
         stdDeviation=".66" />
    </filter>
    <filter
       inkscape:collect="always"
       style="color-interpolation-filters:sRGB"
       id="filter975"
       x="-0.023520001"
       y="-0.023520001"
       width="1.04704"
       height="1.04704">
      <feGaussianBlur
         inkscape:collect="always"
         stdDeviation="0.1666"
         id="feGaussianBlur977" />
    </filter>
    <linearGradient
       id="linearGradient832-3"
       x1="21"
       x2="25"
       y1="16"
       y2="28"
       gradientTransform="matrix(1.1538462,0,0,1.1538462,-13.461538,-14.46154)"
       gradientUnits="userSpaceOnUse"
       xlink:href="#linearGradient830" />
    <filter
       id="filter831"
       style="color-interpolation-filters:sRGB"
       width="1.1450988"
       height="1.142668"
       x="-0.072549419"
       y="-0.071333981">
      <feGaussianBlur
         id="feGaussianBlur833"
         stdDeviation=".475" />
    </filter>
    <filter
       id="filter831-6"
       style="color-interpolation-filters:sRGB"
       width="1.1517499"
       height="1.1372881"
       x="-0.075874928"
       y="-0.068644048">
      <feGaussianBlur
         id="feGaussianBlur833-2"
         stdDeviation=".457" />
    </filter>
    <filter
       id="filter831-7"
       style="color-interpolation-filters:sRGB"
       width="1.1653967"
       height="1.1272932"
       x="-0.082698353"
       y="-0.063646603">
      <feGaussianBlur
         id="feGaussianBlur833-0"
         stdDeviation=".424" />
    </filter>
    <filter
       id="filter831-0"
       style="color-interpolation-filters:sRGB"
       width="1.1515836"
       height="1.1370924"
       x="-0.07579182"
       y="-0.068546176">
      <feGaussianBlur
         id="feGaussianBlur833-6"
         stdDeviation=".457" />
    </filter>
  </defs>
  <circle
     id="circle937"
     style="opacity:0.1;fill:#000000;fill-opacity:1;stroke:none;stroke-width:1.7;stroke-linecap:round;stroke-linejoin:round;stroke-miterlimit:4;stroke-dasharray:none;stroke-opacity:1;filter:url(#filter975)"
     cx="13"
     cy="12"
     r="8.5" />
  <circle
     id="path818"
     style="fill:#1E1E2E;fill-opacity:1;stroke:none;stroke-width:1.7;stroke-linecap:round;stroke-linejoin:round;stroke-miterlimit:4;stroke-dasharray:none;stroke-opacity:1"
     cx="12.5"
     cy="11.5"
     r="8.5" />
  <circle
     id="circle824"
     style="fill:#A6E3A1;fill-opacity:1;stroke:none;stroke-width:1.5;stroke-linecap:round;stroke-linejoin:round;stroke-miterlimit:4;stroke-dasharray:none;stroke-opacity:1"
     cx="12.5"
     cy="11.5"
     r="7.5" />
  <path
     id="path824"
     style="opacity:0.2;fill:#A6E3A1;fill-opacity:1;stroke:none;stroke-width:2.72727;stroke-linecap:round;stroke-linejoin:round;stroke-miterlimit:4;stroke-dasharray:none;stroke-opacity:1"
     d="M 20,11.5 A 7.5,7.5 0 0 1 12.5,19 7.5,7.5 0 0 1 5,11.5 7.5,7.5 0 0 1 12.5,4 7.5,7.5 0 0 1 20,11.5 Z" />
  <path
     id="path835"
     style="color:#000000;font-style:normal;font-variant:normal;font-weight:normal;font-stretch:normal;font-size:medium;line-height:normal;font-family:sans-serif;font-variant-ligatures:normal;font-variant-position:normal;font-variant-caps:normal;font-variant-numeric:normal;font-variant-alternates:normal;font-feature-settings:normal;text-indent:0;text-align:start;text-decoration:none;text-decoration-line:none;text-decoration-style:solid;text-decoration-color:#000000;letter-spacing:normal;word-spacing:normal;text-transform:none;writing-mode:lr-tb;direction:ltr;text-orientation:mixed;dominant-baseline:auto;baseline-shift:baseline;text-anchor:start;white-space:normal;shape-padding:0;clip-rule:nonzero;display:inline;overflow:visible;visibility:visible;opacity:0.2;isolation:auto;mix-blend-mode:normal;color-interpolation:sRGB;color-interpolation-filters:linearRGB;solid-color:#000000;solid-opacity:1;vector-effect:none;fill:#000000;fill-opacity:1;fill-rule:nonzero;stroke:none;stroke-width:1.00069;stroke-linecap:round;stroke-linejoin:round;stroke-miterlimit:4;stroke-dasharray:none;stroke-dashoffset:0;stroke-opacity:1;filter:url(#filter831-0);color-rendering:auto;image-rendering:auto;shape-rendering:auto;text-rendering:auto;enable-background:accumulate"
     d="m 16.861429,8.5053689 c -1.691858,-0.0817 -3.375407,0.3781773 -4.798828,1.3398437 a 0.50381168,0.49842798 60 1 0 0.5625,0.8359394 C 14.2862,9.5589087 16.350419,9.2139754 18.296976,9.7358376 20.243532,10.2577 21.880798,11.594662 22.789163,13.405761 a 0.50329313,0.49791498 60 1 0 0.890626,-0.445312 C 23.550056,12.701789 23.406873,12.453373 23.252054,12.212402 22.168312,10.525608 20.493015,9.290763 18.546976,8.7690407 17.990965,8.6199769 17.425382,8.5326023 16.861429,8.5053689 Z m -0.558594,2.9863301 c -0.372051,0.01355 -0.745142,0.06733 -1.111328,0.166015 -1.281656,0.345386 -2.362625,1.188709 -3.011718,2.326172 -0.09273,0.162494 -0.175531,0.331874 -0.25,0.505859 a 0.4979601,0.49593692 30 1 0 0.914062,0.392578 c 0.47688,-1.114124 1.438879,-1.947686 2.611328,-2.263671 1.17244,-0.316017 2.424654,-0.08095 3.404297,0.640625 a 0.49808729,0.49606359 30 1 0 0.587891,-0.796875 c -0.91791,-0.676103 -2.028377,-1.01136 -3.144532,-0.970703 z m 4.324219,6.30664 a 0.49994779,0.49593692 30 0 0 -0.470703,0.316406 c -0.476383,1.114412 -1.441774,1.947444 -2.617188,2.261719 -1.175411,0.314276 -2.430239,0.07555 -3.414062,-0.648437 a 0.50007549,0.49606359 30 0 0 -0.732422,0.154296 0.50007549,0.49606359 30 0 0 0.144531,0.642579 c 1.229096,0.904482 2.801087,1.205123 4.269532,0.8125 1.468444,-0.392626 2.672428,-1.435893 3.267578,-2.828125 A 0.49994779,0.49593692 30 0 0 20.627054,17.798339 Z M 9.7696323,19.310058 A 0.50328986,0.49889536 60 0 0 9.3204136,20.03662 c 1.0376154,2.069399 2.9099024,3.594813 5.1367184,4.189453 2.226826,0.594606 4.594305,0.200486 6.496094,-1.083984 a 0.50329883,0.49890424 60 0 0 0.152344,-0.666016 0.50329883,0.49890424 60 0 0 -0.714844,-0.167968 c -1.664509,1.124209 -3.732661,1.471622 -5.681641,0.951172 C 12.760109,22.73881 11.121147,21.40056 10.212992,19.589355 A 0.50328986,0.49889536 60 0 0 9.7696323,19.310058 Z"
     transform="matrix(0.75,0,0,0.75,0.5,-0.5)" />
  <path
     id="path847"
     style="color:#000000;font-style:normal;font-variant:normal;font-weight:normal;font-stretch:normal;font-size:medium;line-height:normal;font-family:sans-serif;font-variant-ligatures:normal;font-variant-position:normal;font-variant-caps:normal;font-variant-numeric:normal;font-variant-alternates:normal;font-feature-settings:normal;text-indent:0;text-align:start;text-decoration:none;text-decoration-line:none;text-decoration-style:solid;text-decoration-color:#000000;letter-spacing:normal;word-spacing:normal;text-transform:none;writing-mode:lr-tb;direction:ltr;text-orientation:mixed;dominant-baseline:auto;baseline-shift:baseline;text-anchor:start;white-space:normal;shape-padding:0;clip-rule:nonzero;display:inline;overflow:visible;visibility:visible;isolation:auto;mix-blend-mode:normal;color-interpolation:sRGB;color-interpolation-filters:linearRGB;solid-color:#000000;solid-opacity:1;vector-effect:none;fill:#1E1E2E;fill-opacity:1;fill-rule:nonzero;stroke:none;stroke-width:0.750517;stroke-linecap:round;stroke-linejoin:round;stroke-miterlimit:4;stroke-dasharray:none;stroke-dashoffset:0;stroke-opacity:1;color-rendering:auto;image-rendering:auto;shape-rendering:auto;text-rendering:auto;enable-background:accumulate"
     d="M 12.770996,5.5043946 C 11.502102,5.4431193 10.239441,5.7880275 9.171875,6.5092773 A 0.3778583,0.37382053 60 1 0 9.59375,7.1362307 c 1.245824,-0.8416813 2.793988,-1.1003813 4.253906,-0.7089846 1.459917,0.3913962 2.687867,1.3941171 3.36914,2.7524414 a 0.37746985,0.37343624 60 1 0 0.66797,-0.333984 C 17.787466,8.6517085 17.680079,8.4653965 17.563965,8.2846683 16.751158,7.0195727 15.494685,6.0934401 14.035156,5.7021484 13.618148,5.5903505 13.193961,5.5248196 12.770996,5.5043946 Z M 12.352051,7.744141 C 12.073012,7.7543035 11.793194,7.7946385 11.518555,7.8686522 10.557313,8.1276918 9.7465858,8.760184 9.259766,9.6132813 9.1902185,9.7351518 9.1281178,9.8621867 9.072266,9.9926755 A 0.37347008,0.37195269 30 1 0 9.7578125,10.287109 C 10.115472,9.451516 10.836972,8.8263445 11.716309,8.5893557 c 0.87933,-0.2370127 1.81849,-0.060712 2.553222,0.4804688 A 0.37356547,0.37204769 30 1 0 14.710449,8.4721682 C 14.022017,7.965091 13.189167,7.7136482 12.352051,7.744141 Z m 3.243164,4.72998 a 0.37496084,0.37195269 30 0 0 -0.353027,0.237305 c -0.357288,0.835809 -1.081331,1.460583 -1.962891,1.696289 -0.881559,0.235707 -1.82268,0.05666 -2.560547,-0.486328 a 0.37505662,0.37204769 30 0 0 -0.549316,0.115722 0.37505662,0.37204769 30 0 0 0.108398,0.481934 c 0.921822,0.678362 2.100815,0.903843 3.202149,0.609375 1.101333,-0.294469 2.004321,-1.07692 2.450683,-2.121094 A 0.37496084,0.37195269 30 0 0 15.595215,12.474121 Z M 7.4521484,13.60791 a 0.3774674,0.37417152 60 0 0 -0.336914,0.544922 c 0.7782119,1.552049 2.1824268,2.696109 3.8525386,3.142089 1.67012,0.445955 3.445729,0.150365 4.872071,-0.812988 a 0.37747412,0.37417818 60 0 0 0.114258,-0.499511 0.37747412,0.37417818 60 0 0 -0.536133,-0.125976 c -1.248382,0.843156 -2.799496,1.103716 -4.261231,0.713379 C 9.695006,16.179474 8.4657845,15.175787 7.784668,13.817383 A 0.3774674,0.37417152 60 0 0 7.4521484,13.60791 Z" />
</svg>

<svg xmlns="http://www.w3.org/2000/svg" width="24" height="24">
    <defs>
        <filter id="a" width="1.047" height="1.047" x="-.024" y="-.024" style="color-interpolation-filters:sRGB">
            <feGaussianBlur stdDeviation=".167"/>
        </filter>
        <filter id="b" width="1.152" height="1.137" x="-.076" y="-.069" style="color-interpolation-filters:sRGB">
            <feGaussianBlur stdDeviation=".457"/>
        </filter>
    </defs>
    <circle cx="13" cy="12" r="8.5" style="opacity:.1;fill:#000;fill-opacity:1;stroke:none;stroke-width:1.7;stroke-linecap:round;stroke-linejoin:round;stroke-miterlimit:4;stroke-dasharray:none;stroke-opacity:1;filter:url(#a)"/>
    <circle cx="12.5" cy="11.5" r="8.5" style="fill:#1e1e2e;fill-opacity:1;stroke:none;stroke-width:1.7;stroke-linecap:round;stroke-linejoin:round;stroke-miterlimit:4;stroke-dasharray:none;stroke-opacity:1"/>
    <circle cx="12.5" cy="11.5" r="7.5" style="fill:#a6e3a1;fill-opacity:1;stroke:none;stroke-width:1.5;stroke-linecap:round;stroke-linejoin:round;stroke-miterlimit:4;stroke-dasharray:none;stroke-opacity:1"/>
    <path d="M20 11.5a7.5 7.5 0 0 1-7.5 7.5A7.5 7.5 0 0 1 5 11.5 7.5 7.5 0 0 1 12.5 4a7.5 7.5 0 0 1 7.5 7.5" style="opacity:.2;fill:#a6e3a1;fill-opacity:1;stroke:none;stroke-width:2.72727;stroke-linecap:round;stroke-linejoin:round;stroke-miterlimit:4;stroke-dasharray:none;stroke-opacity:1"/>
    <path d="M16.861 8.505a7.9 7.9 0 0 0-4.798 1.34.504.498 60 1 0 .562.836 6.92 6.92 0 0 1 5.672-.945 7.1 7.1 0 0 1 4.492 3.67.503.498 60 1 0 .89-.446 8.1 8.1 0 0 0-5.133-4.191 8 8 0 0 0-1.685-.264m-.558 2.987a4.95 4.95 0 0 0-4.373 2.998.498.496 30 1 0 .914.392 3.96 3.96 0 0 1 2.611-2.263 3.99 3.99 0 0 1 3.404.64.498.496 30 1 0 .588-.797 5 5 0 0 0-3.144-.97m4.324 6.306a.5.496 30 0 0-.47.317 3.95 3.95 0 0 1-2.618 2.261 4.01 4.01 0 0 1-3.414-.648.5.496 30 0 0-.732.154.5.496 30 0 0 .144.643 5.02 5.02 0 0 0 4.27.812 4.94 4.94 0 0 0 3.267-2.828.5.496 30 0 0-.447-.71M9.77 19.31a.503.499 60 0 0-.45.727 8.1 8.1 0 0 0 5.137 4.19 7.94 7.94 0 0 0 6.496-1.085.503.499 60 0 0 .153-.666.503.499 60 0 0-.715-.168 6.94 6.94 0 0 1-5.682.951 7.08 7.08 0 0 1-4.496-3.67.503.499 60 0 0-.443-.279" style="color:#000;font-style:normal;font-variant:normal;font-weight:400;font-stretch:normal;font-size:medium;line-height:normal;font-family:sans-serif;font-variant-ligatures:normal;font-variant-position:normal;font-variant-caps:normal;font-variant-numeric:normal;font-variant-alternates:normal;font-feature-settings:normal;text-indent:0;text-align:start;text-decoration:none;text-decoration-line:none;text-decoration-style:solid;text-decoration-color:#000;letter-spacing:normal;word-spacing:normal;text-transform:none;writing-mode:lr-tb;direction:ltr;text-orientation:mixed;dominant-baseline:auto;baseline-shift:baseline;text-anchor:start;white-space:normal;shape-padding:0;clip-rule:nonzero;display:inline;overflow:visible;visibility:visible;opacity:.2;isolation:auto;mix-blend-mode:normal;color-interpolation:sRGB;color-interpolation-filters:linearRGB;solid-color:#000;solid-opacity:1;vector-effect:none;fill:#000;fill-opacity:1;fill-rule:nonzero;stroke:none;stroke-width:1.00069;stroke-linecap:round;stroke-linejoin:round;stroke-miterlimit:4;stroke-dasharray:none;stroke-dashoffset:0;stroke-opacity:1;filter:url(#b);color-rendering:auto;image-rendering:auto;shape-rendering:auto;text-rendering:auto;enable-background:accumulate" transform="matrix(.75 0 0 .75 .5 -.5)"/>
    <path d="M12.771 5.504a5.9 5.9 0 0 0-3.6 1.005.378.374 60 1 0 .423.627 5.2 5.2 0 0 1 4.254-.709 5.32 5.32 0 0 1 3.369 2.753.377.373 60 1 0 .668-.334 6.07 6.07 0 0 0-3.85-3.144 6 6 0 0 0-1.264-.198m-.419 2.24q-.42.014-.833.125a3.72 3.72 0 0 0-2.447 2.124.373.372 30 1 0 .686.294 2.97 2.97 0 0 1 1.958-1.698 3 3 0 0 1 2.554.48.374.372 30 1 0 .44-.597 3.75 3.75 0 0 0-2.358-.728m3.243 4.73a.375.372 30 0 0-.353.237 2.97 2.97 0 0 1-1.963 1.697 3 3 0 0 1-2.56-.487.375.372 30 0 0-.55.116.375.372 30 0 0 .109.482c.922.678 2.1.904 3.202.61a3.7 3.7 0 0 0 2.45-2.122.375.372 30 0 0-.335-.533m-8.143 1.134a.377.374 60 0 0-.337.545 6.07 6.07 0 0 0 3.853 3.142c1.67.446 3.446.15 4.872-.813a.377.374 60 0 0 .114-.5.377.374 60 0 0-.536-.126 5.2 5.2 0 0 1-4.261.714 5.3 5.3 0 0 1-3.372-2.753.377.374 60 0 0-.333-.21" style="color:#000;font-style:normal;font-variant:normal;font-weight:400;font-stretch:normal;font-size:medium;line-height:normal;font-family:sans-serif;font-variant-ligatures:normal;font-variant-position:normal;font-variant-caps:normal;font-variant-numeric:normal;font-variant-alternates:normal;font-feature-settings:normal;text-indent:0;text-align:start;text-decoration:none;text-decoration-line:none;text-decoration-style:solid;text-decoration-color:#000;letter-spacing:normal;word-spacing:normal;text-transform:none;writing-mode:lr-tb;direction:ltr;text-orientation:mixed;dominant-baseline:auto;baseline-shift:baseline;text-anchor:start;white-space:normal;shape-padding:0;clip-rule:nonzero;display:inline;overflow:visible;visibility:visible;isolation:auto;mix-blend-mode:normal;color-interpolation:sRGB;color-interpolation-filters:linearRGB;solid-color:#000;solid-opacity:1;vector-effect:none;fill:#1e1e2e;fill-opacity:1;fill-rule:nonzero;stroke:none;stroke-width:.750517;stroke-linecap:round;stroke-linejoin:round;stroke-miterlimit:4;stroke-dasharray:none;stroke-dashoffset:0;stroke-opacity:1;color-rendering:auto;image-rendering:auto;shape-rendering:auto;text-rendering:auto;enable-background:accumulate"/>
</svg>
